X:26
T:L'anneau
C:     %Tune composer
R:Branle
O:France
A:Alsace
C:Trad.
%%continueall  1
N:     %Tune infos
Q:1/4=113     %Tempo
Z:Transcrit et/ou corrigé par Michel BELLON - 2005-09-15
Z:Pour toute observation mailto:galouvielle@free.fr
M:4/4     %Meter
L:1/8     %
K:C
A |Ac BA G3 G |Ae ed e3 A |Ac BA G3 G |Ae ed e2 cd |e2 ef e2 dc |d2 df eA AB |
A2 GF G2 Bd |c2 B2 A3 A |Ac BA G3 G |Ae ed e3
A |Ac BA G3 G |Ae ed e2 cd |e2 ef e2 dc |d2 df eA AB |A2 GF G2 Bd |c2 B2 A4 |]
     %End of file
